X: 22
T: No_19_Sun_Dance_Song_(b).krn
N: Derived from No_19_Sun_Dance_Song_(b).krn
%%abc-version 2.0
%%abcx-abcm2ps-target-version 5.9.1 (29 Sep 2008)
%%abc-creator hum2abc beta
%%abcx-conversion-date 2019/03/15 08:36:49
%%humdrum-veritas 563037241
%%humdrum-veritas-data 1866872988
%%linebreak <none>
%%barnumbers 0
L: 1/8
M: 2/4
K: Ab clef=bass
[K:clef=bass][M:2/4]EE (3FEC | 
E2D/B,/A, | 
A,2CA, | 
A,2A,2 | 
CA, CA, | 
F,A, A,E, | 
E,2E,2 | 
F,E, F,E, | 
C,E, F,/E,/E,/C,/ | 
A,,A,,A,,2 | 
A,A, CA, | 
F,A, CA, | 
A,A, A, z | 
CA, CA, | 
F,A, A,E, | 
E,E,E,2 | 
F,E, F,E, | 
C,E, F,/E,/E,/C,/ | 
A,,A,,A,,2 |]  



